app/images/icons/map-mark.svg

<svg width="18" height="16" viewBox="0 0 18 16" fill="none" xmlns="http://www.w3.org/2000/svg">
<path d="M12.75 3.86792C12.7292 4.45125 12.5208 5.12834 12.125 5.89917C11.7292 6.67 11.2708 7.42 10.75 8.14917C10.25 8.8575 9.82292 9.43042 9.46875 9.86792C9.34375 10.0138 9.1875 10.0867 9 10.0867C8.8125 10.0867 8.65625 10.0138 8.53125 9.86792C8.17708 9.43042 7.75 8.8575 7.25 8.14917C6.72917 7.42 6.27083 6.67 5.875 5.89917C5.47917 5.12834 5.27083 4.45125 5.25 3.86792C5.27083 2.80542 5.63542 1.92 6.34375 1.21167C7.05208 0.503337 7.9375 0.138753 9 0.11792C10.0625 0.138753 10.9479 0.503337 11.6562 1.21167C12.3646 1.92 12.7292 2.80542 12.75 3.86792ZM13 6.36792C13.1042 6.15959 13.2083 5.95125 13.3125 5.74292C13.3125 5.72209 13.3125 5.70125 13.3125 5.68042C13.3333 5.65959 13.3438 5.63875 13.3438 5.61792L16.9688 4.18042C17.2396 4.07625 17.4688 4.09709 17.6562 4.24292C17.8646 4.38875 17.9792 4.59709 18 4.86792V13.3367C17.9792 13.67 17.8229 13.8992 17.5312 14.0242L13 15.8367V6.36792ZM4.3125 4.43042C4.39583 4.88875 4.52083 5.32625 4.6875 5.74292C4.79167 5.95125 4.89583 6.15959 5 6.36792V14.2429L1.03125 15.8367C0.760417 15.92 0.53125 15.8888 0.34375 15.7429C0.135417 15.6179 0.0208333 15.4096 0 15.1179V6.68042C0.0208333 6.34709 0.177083 6.1075 0.46875 5.96167L4.3125 4.43042ZM10.25 10.4929C10.7292 9.90959 11.3125 9.1075 12 8.08667V15.8679L6 14.1492V8.08667C6.6875 9.1075 7.27083 9.90959 7.75 10.4929C8.10417 10.8888 8.52083 11.0867 9 11.0867C9.47917 11.0867 9.89583 10.8888 10.25 10.4929ZM9 4.86792C9.47917 4.84709 9.84375 4.63875 10.0938 4.24292C10.3021 3.82625 10.3021 3.40959 10.0938 2.99292C9.84375 2.59709 9.47917 2.38875 9 2.36792C8.52083 2.38875 8.15625 2.59709 7.90625 2.99292C7.69792 3.40959 7.69792 3.82625 7.90625 4.24292C8.15625 4.63875 8.52083 4.84709 9 4.86792Z" fill="#1D53C0"/>
</svg>

<svg width="18" height="16" fill="none" xmlns="http://www.w3.org/2000/svg"><path d="M12.75 3.868c-.02.583-.23 1.26-.625 2.031a18.05 18.05 0 01-1.375 2.25 33.77 33.77 0 01-1.281 1.719.592.592 0 01-.469.219.592.592 0 01-.469-.22A33.705 33.705 0 017.25 8.15c-.52-.73-.98-1.48-1.375-2.25-.396-.77-.604-1.448-.625-2.031.02-1.063.385-1.948 1.094-2.656C7.052.503 7.937.139 9 .118c1.063.02 1.948.385 2.656 1.094.709.708 1.073 1.593 1.094 2.656zm.25 2.5l.313-.625V5.68c.02-.02.03-.041.03-.062L16.97 4.18c.27-.104.5-.083.687.063a.797.797 0 01.344.625v8.469c-.02.333-.177.562-.469.687L13 15.837v-9.47zM4.312 4.43c.084.459.209.896.375 1.313L5 6.368v7.875l-3.969 1.594c-.27.083-.5.052-.687-.094-.209-.125-.323-.333-.344-.625V6.68a.807.807 0 01.469-.718L4.313 4.43zm5.938 6.063c.48-.583 1.063-1.386 1.75-2.406v7.78L6 14.15V8.087c.688 1.02 1.27 1.823 1.75 2.406.354.396.77.594 1.25.594s.896-.198 1.25-.594zM9 4.868c.48-.02.844-.23 1.094-.625a1.328 1.328 0 000-1.25c-.25-.396-.615-.604-1.094-.625-.48.02-.844.23-1.094.625a1.328 1.328 0 000 1.25c.25.396.615.604 1.094.625z" fill="#1D53C0"/></svg>
